X:1
T:Clean-o
M:4/4
L:1/8
K:C
 C/2C/2 E| G G- G3 EG G| E4 z2 DE| F2 z2 z DE F| G4 z2| A/2A/2 G| c c- c3 GA G|\
 E- C3 z CE A| G6- GE| D C3- C4|
